build/img/svg-sprite/icon-shopping-cart.svg

<svg viewBox="0 0 12 12" fill="none" xmlns="http://www.w3.org/2000/svg">
<g clip-path="url(#clip0)">
<path d="M4.00448 9.31435C3.42931 9.31435 2.95871 9.78494 2.95871 10.3601C2.95871 10.9353 3.42931 11.4059 4.00448 11.4059C4.57965 11.4059 5.05024 10.9353 5.05024 10.3601C5.05024 9.78494 4.57965 9.31435 4.00448 9.31435ZM0.867188 0.948242V1.99401H1.91295L3.79533 5.96791L3.06329 7.22282C3.011 7.37969 2.95871 7.58884 2.95871 7.74571C2.95871 8.32088 3.42931 8.79147 4.00448 8.79147H10.2791V7.74571H4.21363C4.16134 7.74571 4.10905 7.69342 4.10905 7.64113V7.58882L4.57965 6.69992H8.44897C8.86728 6.69992 9.18101 6.49077 9.33787 6.17704L11.2202 2.77833C11.3248 2.67375 11.3248 2.62146 11.3248 2.51689C11.3248 2.20316 11.1157 1.99401 10.8019 1.99401H3.06329L2.5927 0.948242H0.867188ZM9.2333 9.31435C8.65813 9.31435 8.18753 9.78494 8.18753 10.3601C8.18753 10.9353 8.65813 11.4059 9.2333 11.4059C9.80847 11.4059 10.2791 10.9353 10.2791 10.3601C10.2791 9.78494 9.80847 9.31435 9.2333 9.31435Z" fill="#FF834E"/>
</g>
<defs>
<clipPath id="clip0">
<rect x="0.867188" y="0.948242" width="10.4576" height="10.4576" fill="white"/>
</clipPath>
</defs>
</svg>

<svg viewBox="0 0 12 12" fill="none" xmlns="http://www.w3.org/2000/svg"><g clip-path="url(#clip0)"><path d="M4.004 9.314c-.575 0-1.045.47-1.045 1.046 0 .575.47 1.046 1.045 1.046.576 0 1.046-.47 1.046-1.046 0-.575-.47-1.046-1.046-1.046zM.867.948v1.046h1.046l1.882 3.974-.732 1.255a1.858 1.858 0 00-.104.523c0 .575.47 1.045 1.045 1.045h6.275V7.746H4.214a.112.112 0 01-.105-.105V7.59l.47-.89h3.87c.418 0 .732-.208.889-.522l1.882-3.399c.105-.104.105-.157.105-.261 0-.314-.21-.523-.523-.523H3.063L2.593.948H.867zm8.366 8.366c-.575 0-1.045.47-1.045 1.046 0 .575.47 1.046 1.045 1.046s1.046-.47 1.046-1.046c0-.575-.47-1.046-1.046-1.046z" fill="#FF834E"/></g><defs><clipPath id="clip0"><path fill="#fff" d="M.867.948h10.458v10.458H.867z"/></clipPath></defs></svg>
